priv/static/svgs/icons_new/security-bet-insurance.svg

<svg width="32" height="32" viewBox="0 0 32 32" fill="none" xmlns="http://www.w3.org/2000/svg">
<path d="M20.5 5.34326H11.5C9.01472 5.34326 7 7.35798 7 9.84326V15.8291C7 19.8727 9.78567 23.2846 13.518 25.4869C15.048 26.3897 16.952 26.3897 18.482 25.4869C22.2143 23.2846 25 19.8727 25 15.8291V9.84326C25 7.35798 22.9853 5.34326 20.5 5.34326Z" stroke="black" stroke-linecap="round"/>
<path d="M21.5 17.5C21.5 18.0523 21.0881 18.5 20.58 18.5L12.1042 18.5M12.1042 10.5L20.58 10.5C21.0881 10.5 21.5 10.9477 21.5 11.5L21.5 11.996C21.5 12.0999 21.415 12.1823 21.3128 12.2018C20.8963 12.2812 20.5833 12.6202 20.5833 13.0263C20.5833 13.4325 20.8963 13.7715 21.3128 13.8509C21.415 13.8703 21.5 13.9527 21.5 14.0567L21.5 14.9433C21.5 15.0473 21.415 15.1297 21.3128 15.1491C20.8963 15.2285 20.5833 15.5675 20.5833 15.9737C20.5833 16.3798 20.8963 16.7188 21.3128 16.7982C21.415 16.8177 21.5 16.9001 21.5 17.004L21.5 17.4474M10.5 17.5C10.5 18.0523 10.9119 18.5 11.42 18.5L12.33 18.5M12.33 10.5L11.42 10.5C10.9119 10.5 10.5 10.9477 10.5 11.5L10.5 11.996C10.5 12.0999 10.585 12.1823 10.6872 12.2018C11.1037 12.2812 11.4167 12.6202 11.4167 13.0263C11.4167 13.4325 11.1037 13.7715 10.6872 13.8509C10.585 13.8703 10.5 13.9527 10.5 14.0567L10.5 14.9433C10.5 15.0473 10.585 15.1297 10.6872 15.1491C11.1037 15.2285 11.4167 15.5675 11.4167 15.9737C11.4167 16.3798 11.1037 16.7188 10.6872 16.7982C10.585 16.8177 10.5 16.9001 10.5 17.004L10.5 17.4474M17.9479 18.1842L17.9479 17.5526M17.9479 16.5L17.9479 15.8684M17.9479 14.8158L17.9479 14.1842M17.9479 13.1316L17.9479 12.5M17.9479 11.4474L17.9479 10.8158" stroke="black" stroke-width="0.8" stroke-linecap="round"/>
</svg>

<svg width="32" height="32" viewBox="0 0 32 32" fill="none" xmlns="http://www.w3.org/2000/svg">
  <symbol id="item" viewBox="0 0 32 32" stroke-width="1" fill="none">
    <path d="m13.518 25.487-.254.43.254-.43Zm4.964 0 .254.43-.254-.43ZM11.5 5.843h9v-1h-9v1Zm13 4v5.986h1V9.843h-1Zm-17 5.986V9.843h-1v5.986h1Zm6.272 9.227C10.12 22.902 7.5 19.626 7.5 15.83h-1c0 4.29 2.95 7.838 6.764 10.089l.508-.862ZM24.5 15.83c0 3.797-2.62 7.073-6.272 9.227l.508.862c3.813-2.25 6.764-5.799 6.764-10.089h-1ZM13.264 25.918a5.388 5.388 0 0 0 5.472 0l-.508-.862a4.388 4.388 0 0 1-4.456 0l-.508.862ZM20.5 5.843a4 4 0 0 1 4 4h1a5 5 0 0 0-5-5v1Zm-9-1a5 5 0 0 0-5 5h1a4 4 0 0 1 4-4v-1Z" fill="currentColor"/><path d="M21.5 17.5c0 .552-.412 1-.92 1h-8.476m0-8h8.476c.508 0 .92.448.92 1v.496c0 .104-.085.186-.187.206-.417.08-.73.418-.73.824 0 .406.313.745.73.825.102.02.187.102.187.206v.886c0 .104-.085.187-.187.206-.417.08-.73.419-.73.825 0 .406.313.745.73.824.102.02.187.102.187.206v.443m-11 .053c0 .552.412 1 .92 1h.91m0-8h-.91c-.508 0-.92.448-.92 1v.496c0 .104.085.186.187.206.417.08.73.418.73.824 0 .406-.313.745-.73.825-.102.02-.187.102-.187.206v.886c0 .104.085.187.187.206.417.08.73.419.73.825 0 .406-.313.745-.73.824-.102.02-.187.102-.187.206v.443m7.448.737v-.631m0-1.053v-.632m0-1.052v-.632m0-1.052V12.5m0-1.053v-.631" stroke="currentColor" stroke-width=".8" stroke-linecap="round"/>
  </symbol>
</svg>
